X: 36491
T: September
R: reel
M: 4/4
K: Dmajor
|:~B,A,B,C DCDE|FGFE DCB,A,|~B,A,B,C DCDE|FBBA B4|
~B,A,B,C DCDE|FGFE DCB,A,|~B, A,B,C DCDE|1 FEDC B,4:|2 FEDC B,CDE||
FBBA B2Bc|dcBA BFFE|FBBA B2 FB|AFFE F2 FE|
FBBA B2Bc|dcBA BFFE|FBFE DCB,C|DB,CA, B,CDE|
FBBA B2Bc|dcBA BFFE|FBBA B2FB|ABFB ABFE|
FBBA B2Bc|dcBA BFFE|FBFE DCB,C|DB,CA, B,4||

